material/.icons/material/thermometer-lines.svg

<svg xmlns="http://www.w3.org/2000/svg" viewBox="0 0 24 24"><path d="M17 3h4v2h-4V3m0 4h4v2h-4V7m0 4h4v2h-3.25l-.75-.9V11m4 4v2h-2c0-.69-.1-1.37-.29-2H21M7 3v2H3V3h4m0 4v2H3V7h4m0 4v1.1l-.75.9H3v-2h4m-4 4h2.29c-.19.63-.29 1.31-.29 2H3v-2m12-2V5c0-1.66-1.34-3-3-3S9 3.34 9 5v8c-2.21 1.66-2.66 4.79-1 7s4.79 2.66 7 1 2.66-4.79 1-7a4.74 4.74 0 00-1-1m-3-9c.55 0 1 .45 1 1v3h-2V5c0-.55.45-1 1-1z"/></svg>

<?xml version="1.0" encoding="UTF-8"?><!DOCTYPE svg PUBLIC "-//W3C//DTD SVG 1.1//EN" "http://www.w3.org/Graphics/SVG/1.1/DTD/svg11.dtd"><svg xmlns="http://www.w3.org/2000/svg" xmlns:xlink="http://www.w3.org/1999/xlink" version="1.1" id="mdi-thermometer-lines" width="24" height="24" viewBox="0 0 24 24"><path d="M17 3H21V5H17V3M17 7H21V9H17V7M17 11H21V13H17.75L17 12.1V11M21 15V17H19C19 16.31 18.9 15.63 18.71 15H21M7 3V5H3V3H7M7 7V9H3V7H7M7 11V12.1L6.25 13H3V11H7M3 15H5.29C5.1 15.63 5 16.31 5 17H3V15M15 13V5C15 3.34 13.66 2 12 2S9 3.34 9 5V13C6.79 14.66 6.34 17.79 8 20S12.79 22.66 15 21 17.66 16.21 16 14C15.72 13.62 15.38 13.28 15 13M12 4C12.55 4 13 4.45 13 5V8H11V5C11 4.45 11.45 4 12 4Z" /></svg>
